X:1
T:Pis ne me peut venir
T:Noé Faignient
T:Source : La fleur des chansons à 3---Louvain---P.Phalèse---1574. Editor : André Vierendeels (29/08/18) Notes : Original clefs : G2, C1, C3 Original note values have been halved Editorial accidentals above the staff 
T:Pis ne me peut venir
T:©
T:©
T:©
T:©
T:©
C:Noé Faignient
Z:©
%%score [ 1 2 3 ]
L:1/8
Q:1/4=120
M:2/2
K:F
V:1 treble nm="Soprano 1" snm="S 1"
V:2 treble nm="Soprano 2" snm="S 2"
V:3 treble-8 nm="Tenor" snm="T"
V:1
 G4 d3 d | d2 f2 c3 c | c2 A2 B3 c | d2 B2 A4 | f4 edcd | e2 f2 e2 d2 | ^c4 z2 A2 | dddd ^c4 | %8
w: Pis ne me|peut ve- nir que|i'ay ius- ques _|_ i- cy,|que i'ay _ _ _|_ ius- ques i-|cy, pour|vo- stre sou- ve- nir,|
 d4 ffff | edef e2 d2 | e2 f2 e2 e2 | d2 d2 d3 A | cBBA/G/ A2 A2 | G2 d2 d2 c2 | =B2 c2 A2 d2 | %15
w: pour vo- stre sou- ve-|nir _ _ _ _ ie|lan- guis en sou-|cy, ie lan- guis|en _ _ _ _ _ sou-|cy, et suis loin|de mer- cy, et|
 f2 f2 d2 _e2 | d2 A2 d2 d2 | c2 B2 A4 | z4 z2 e2 | f4 d4 | c2 B2 A4 | z4 z2 G2 | c3 c c2 c2 | %23
w: suis loin de mer-|cy, trai- té trop|du- re- ment,|trai-|té trop|du- re- ment,|vo-|tre cueur en- dur-|
 B2 z A dddd | c2 c2 B2 A2 | F2 G2 A2 f2 | dddB cccd | c2 B2 A2 A2 | d3 d d2 d2 | ^c2 e2 ffff | %30
w: cy, vo- stre cueur en- dur-|cy me don- ne|ce tour- ment, me|don- ne ce tour- ment, me don- ne|ce tour- ment, vo-|stre cueur en- dur-|cy, vo- stre cueur en- dur-|
 edef e2 d2 | e2 f2 e2 e2 | d2 d2 d3 A | cB BA/G/ A2 A2 | G2 g2 g4- | g2 f2 _e2 e2 | d8 |] %37
w: cy, vo- stre cueur en dur-|cy me don- ne|ce tour- ment me|don- * ne _ _ ce tour-|ment, me don-|* ne ce tour-|ment.|
V:2
 z8 | D4 A3 A | A2 c2 G3 G | G2 G2 F3 G | A2 A2 GFEF | G2 A2 G2 F2 | EDEF G2 E2 | D2 D2 AAAA | %8
w: |Pis ne me|peut ve- nir que|i'ay ius- ques _|_ i- cy, _ _ _|_ que i'ay ius-|ques _ _ _ _ i-|cy, pour vo- stre sou- ve-|
 G2 B2 AAAA | G4 z2 D2 | A3 A A2 c2 | B2 A2 G2 A2- | A2 G4 ^F2 | G2 B2 A2 A2 | G2 G2 ^F2 G2 | %15
w: nir, pour vo- stre sou- ve-|nir, pour|vo- stre sou- ve-|nir ie lan- guis|_ en sou-|cy, et suis loin|de mer- cy, et|
"^-natural" D2 F2 G2 C2 | D2 D2 B2 B2 | A2 G2 ^F2 z D |"^-natural" G2 G2 F2 E2 | D2 A2 B2 B2 | %20
w: suis loin de mer-|cy, trai- té trop|du- re- ment, trai-|té trop du- re-|ment, trai- té trop|
 A2 G2 ^F2 z A | B3 B B2 B2 | A6 A2 | D2 A2 A2 G2 | A4 z2 A2 | dddd c2 A2 | BBBG AAAB | %27
w: du- re- ment, vo-|stre cueur en- dur-|cy me|don- ne ce tour-|ment, vo-|stre cueur en- dur- cy, vo-|stre cueur en- dur- cy me don- ne|
 A2 G2 FGAG | FEDC D2 D2 | A3 A A2 A2 | G4 z2 D2 | A3 A A2 c2 | B2 A2 G2 A2- | A2 G4 ^F2 | %34
w: ce _ tour- * * *|* * * * ment, vo-|stre cueur en- dur|cy, vo-|stre cueur en- dur-|cy me don- ne|_ ce tour-|
 G2 B2 B4- | B2 B2 G3 A | =B8 |] %37
w: ment, me don-|* ne ce tour-|ment.|
V:3
 z8 | z8 | z8 | G4 d3 d | d2 f2 c3 c | c2 A2 c2 d2 | A2 A2 G2 A2 | B2 B2 A4 | z2 G2 dddf | %9
w: |||Pis ne peut|me ve- nir que|i'ay ius- ques i-|cy, que iay ius-|ques i- cy,|pour vo- stre sou- ve-|
 c3 c c2 B2 | c2 d2 A4 | z2 d2 G2 d2 | c2 _e2 d4 |"^-natural" z2 g2 d2 f2 | g2 c2 d2 b2 | %15
w: nir ie lan- guis|en sou- cy,|ie lan- guis|en sou- cy,|et suis loin|de mer- cy, et|
 a2 a2 g2 g2 | ^f4 z4 | z2 G2 d2 d2 | c2 B2 A4 | z2 d2 B2 B2 | F2 G2 d2 d2 | g3 g g2 g2 | f4 F4 | %23
w: suis loin de mer-|cy,|trai- té trop|du- re- ment,|tra- té trop|du- re- ment, vo-|stre cueur en dur-|cy me|
 G2 A2 B2 B2 | A2 A2 G2 A2 | B2 B2 A2 d2 | gggg f3 B | f2 g2 defe | dcBA B2 B2 | A2 A2 dddf | %30
w: don- ne ce tour-|ment, me don- ne|ce tour- ment, vo-|stre cueur en- dur- cy me|don- ne ce _ _ _|_ _ _ _ _ tour-|ment, me don- ne ce tour-|
 c3 c c2 B2 | c2 d2 A4 | z2 d2 G2 d2 | c2 e2 d4 | G4 _e4- | e2 B2 c2 c2 | G8 |] %37
w: ment, me don- ne|ce tour- ment,|me don- ne|ce tour- ment,|me don-|* ne ce tour-|ment.|

